X:SSF 14-19b 59
T:Not For Joe
N:Not to be confused with Arthur Lloyd's "Not For Joseph"
M:4/4
K:G
P:A
D2G2 D2GD F2E2 F2E2 |1,3 D2G2 D2GD F2G2 A4 :|2 D4 D2EF G2F2 G4 :|4 D2D2 d3c B2A2 G2 ||
P:B
GA| B3A G2B2 c3B A2c2 |1,3 B3A G2BG AGFE D2 :|2,4 B2G2 A2F2 G4 G2 :|

%      SSF 14-19b 60 = SSF 14-18 93 Walter Bulwer's No.2,
% into SSF 14-19b 61 = SSF 14-18 94 Walter Bulwer's No.1

% SSF 14-19b 62 = WFS 13-07 22 Galopede (but AABC), into...

